!!!COM: Bach, Johann Sebastian
!!!OTL: 9. Ermuntre dich, mein schwacher Geist
!!!ONM: No. 9
!!!OCL: Erk
!!!SCA: BWV 248.12
!!!YOE: Riemenschneider, Albert
!!!OPR: 371 Harmonized Chorales and 69 Chorale Melodies with Figured Bass
!!!OPT: Bach Chorale Harmonizations
!!!ONB: From the "Christmas Oratorio", Part II, No. 3
**harm	**root	**kern	**kern	**kern	**kern
!	!	!bass	!tenor	!alto	!sprno
*Iorgan	*Iorgan	*Iorgan	*Iorgan	*Iorgan	*Iorgan
*>[A,A,B]	*>[A,A,B]	*>[A,A,B]	*>[A,A,B]	*>[A,A,B]	*>[A,A,B]
*>norep[A,B]	*>norep[A,B]	*>norep[A,B]	*>norep[A,B]	*>norep[A,B]	*>norep[A,B]
*>A	*>A	*>A	*>A	*>A	*>A
*k[b-e-]	*k[b-e-]	*k[b-e-]	*k[b-e-]	*k[b-e-]	*k[b-e-]
*B-:	*B-:	*B-:	*B-:	*B-:	*B-:
*met(C)	*met(C)	*met(C)	*met(C)	*met(C)	*met(C)
*M4/4	*M4/4	*M4/4	*M4/4	*M4/4	*M4/4
*MM60	*MM60	*MM60	*MM60	*MM60	*MM60
I	4GG	8B-	4d	4f	4b-
.	.	8A	.	.	.
=1	=1	=1	=1	=1	=1
vi	4EE	4G	8d	4g	4b-
.	.	.	[8e-	.	.
V7	4DD	4F	8e-]	4a	4cc
.	.	.	8f	.	.
I	8GG	4B-	8d	8f	8dd
V7d/V	8AA	.	8c	8g	8ee
Vb	4DD	8A	4c	4a	4ff
.	.	8B-	.	.	.
=2	=2	=2	=2	=2	=2
Vc	4DD	4c	4c	8g	4ff
.	.	.	.	8a	.
V7/V	4AA	4C	4c	4b-	4ee
V;	4DD;	4F;	4c;	4a;	4ff;
Vb/vi	4BB	4F#	8d	4a	4dd
.	.	.	8c	.	.
=3	=3	=3	=3	=3	=3
IVb	8CC	8G	8B-	4g	4ee-
viio7	8FF#	8A	8c	.	.
I	8GG	8B-	8d	8f	4dd
IV7	8CC	8E-	8e-	8g	.
V7d	4DD	8e-	4f	4a	4cc
.	.	8d	.	.	.
I	4GG	8c	4f	[4b-	4dd
.	.	8B-	.	.	.
=4	=4	=4	=4	=4	=4
V	2DD	4f	4.f	4b-]	2cc
.	.	4F	.	4a	.
.	.	.	8e-	.	.
I;	4GG;	4B-;	4d;	4f;	4b-;
=:|!	=:|!	=:|!	=:|!	=:|!	=:|!
*>B	*>B	*>B	*>B	*>B	*>B
V	4DD	4F	8f	8a	4cc
.	.	.	8g	8b-	.
=5	=5	=5	=5	=5	=5
V	8DD	8f	8a	4.cc	4cc
iib	8AA	8e-	8g	.	.
viiob/ii	4GG#	4d	4f	.	4dd
.	.	.	.	8b	.
ii	4AA	4c	4g	8cc	4ee-
.	.	.	.	8b	.
viioD7/vi	4DD#	4F#	4a	4cc	4ee-
=6	=6	=6	=6	=6	=6
!!linebreak: 2
vi	4EE	4G	4d	4cc	8dd
.	.	.	.	.	8cc
V/ii	4EE	4G	8g	4b	4dd
.	.	.	8f	.	.
ii;	4AA;	4C;	4e-;	4g;	4cc;
vi	8EE	8G	8B-	8g	4dd
V7b/vi	8BB	8A	8c	8f#	.
=7	=7	=7	=7	=7	=7
vib	4EE	4B-	8d	4g	4dd
.	.	.	8e-	.	.
V7b/ii	4EE	4B	8f	4g	4dd
.	.	.	8g	.	.
ii	4AA	4c	4e-	8g	8ee-
.	.	.	.	8a	8ff
viioD7/iii	4AA#	4c#	4e	8b-	4gg
.	.	.	.	8a	.
=8	=8	=8	=8	=8	=8
iii	4BB	4d	4d	8a	4gg
.	.	.	.	8b-	.
V7/vi	4BB	4D	4d	4cc	4ff#
vi;	4EE;	4G;	4d;	4b-;	4gg;
V	4DD	8f	4f	4cc	4aa
.	.	8e-	.	.	.
=9	=9	=9	=9	=9	=9
Ib	4GG	8d	4f	8b-	4bb-
.	.	8c	.	8cc	.
I	4GG	8B-	4b-	[4dd	4dd
.	.	8A	.	.	.
IV7b	8CC	8G	8B-	8dd]	4ee-
viio7	8FF#	8A	8c	[8cc	.
vib	4EE	8B-	4d	8cc]	4dd
.	.	8G	.	8b-	.
=10	=10	=10	=10	=10	=10
V7b/V	2AA	8E	8g	2b-	2cc
.	.	8D	8f	.	.
.	.	8E	8g	.	.
.	.	8C	8e	.	.
V;	4DD;	4F;	4f;	4a;	4cc;
Ib	4GG	4D	[4f	8b-	4ff
.	.	.	.	8a	.
=11	=11	=11	=11	=11	=11
IV	4CC	4E-	8f]	4g	4gg
.	.	.	8e-	.	.
V7	4DD	4F	8e-	4a	4ff
.	.	.	8d	.	.
IV7b	8CC	8G	8d	8b-	4ee-
viio	8FF#	8A	8c	8cc	.
I	4GG	4B-	4B-	4f	8dd
.	.	.	.	.	8ee-
=12	=12	=12	=12	=12	=12
ii7b	4AA	4E-	8B-	4g	2cc
.	.	.	16A	.	.
.	.	.	16G	.	.
V	4DD	4F	4A	4f	.
I;	4GG;	4BB-;	4d;	4f;	4b-;
==	==	==	==	==	==
*-	*-	*-	*-	*-	*-
!!!CDT: 1685/3//-1750/7/28
!!!OCY: Deutschland
!!!AGN: chorale
!!!AST: Baroque
!!!AIN: vox
!!!YOY: 1941
!!!PPP: New York; London
!!!PPR: G. Schirmer
!!!ENC: David Huron
!!!EED: David Huron
!!!YEN: United States of America
!!!YER: 1992
!!!YEC: Copyright 1992 David Huron
!!!YEM: Rights to all derivative electronic formats reserved.
!!!YER: March 20, 1996
!!!AMT: simple quadruple
!!!EEV: 1.1
!!chor2scor: -l 2 -s 0.6 -o %b.pmx
